!!!!SEGMENT: Wil3034-La_jeusne_dame_va_au_molin.krn
!!!id: Wil3034
!!!AGN: Chanson
!!!SCT: Bernstein (1984)
!!!voices: 3
!!!COM: Adrian Willaert
!!!OTL: La jeusne dame va au molin
**kern	**kern	**kern
*part3	*part2	*part1
*staff3	*staff2	*staff1
*I"Bassus	*I"Tenor	*I"Superius
*I'B	*I'T	*I'S
*clefF4	*clefGv2	*clefGv2
*k[b-]	*k[b-]	*k[b-]
*F:	*F:	*F:
*M2/1	*M2/1	*M2/1
*met(C|)	*met(C|)	*met(C|)
=1	=1	=1
1F	1r	0r
2E	2r	.
2D	2F	.
=2	=2	=2
2C	1.G	0r
2BB-y	.	.
2.C	.	.
.	2G	.
4BB-y	.	.
=3	=3	=3
2GG	1G	0r
2BB-y	.	.
2C	2G	.
[2D	2B-y	.
=4	=4	=4
4D]	2.A	0r
4C	.	.
1F	.	.
.	8GL	.
.	8FJ	.
.	2G	.
2E	2G	.
=5	=5	=5
2F	2.F	1r
2BB-y	.	.
.	4G	.
2C	2A	2r
2D	2B-y	2F
=6	=6	=6
2.E-X	4B-y	1.G
.	4A	.
.	4G	.
4D	4F	.
2C	2E	.
2BB-y	2D	2G
=7	=7	=7
4C	2E	1G
4D	.	.
4E	4C	.
4F	4D	.
2G	4E	2G
.	4F	.
4GG	4G	[2B-y
4AA	4F	.
=8	=8	=8
4BB-y	4D	4B-]
4C	4E	4A
2D	1F	4G
.	.	4F
1C	.	2G
.	2E	2G
=9	=9	=9
2r	1F	1F
2D	.	.
2D	1r	2A
2C	.	2A
=10	=10	=10
2BB-y	1r	2G
2BB-y	.	2F
1F	2r	2F
.	2A	[2c
=11	=11	=11
2E-X	2G	2c]
2E-i	2G	1B-y
3.D	2F	.
6D	2F	2A
3D	.	.
=12	=12	=12
1C	1c	3.A
.	.	6A
.	.	3G
2r	2A	1F
2FF	2A	.
=13	=13	=13
2C	3.G	2r
2C	6G	2c
.	3G	.
2D	1F	2B-y
2F	.	2A
=14	=14	=14
2E	2r	2G
4D	2F	2A
4C	.	.
2D	2F	2.A
2D	2F	.
.	.	8GL
.	.	8FJ
=15	=15	=15
2C	2G	4E
.	.	4F
4BB-y	2B-y	4G
4C	.	4E
4D	2.A	2F
4E	.	.
[2F	.	2D
.	8GL	.
.	8FJ	.
=16	=16	=16
2F]	2G	2C
2E	2G	2c
2.F	2F	2c
.	[2c	2c
4E	.	.
=17	=17	=17
1D	2c]	2d
.	2B-y	2f
2r	1c	2.e
2C	.	.
.	.	8dL
.	.	8cJ
=18	=18	=18
2C	0r	2e
2D	.	2d
2E	.	2.c
2F	.	.
.	.	8B-yL
.	.	8AJ
=19	=19	=19
2E	1r	2G
4D	.	2.A
4C	.	.
2.D	2r	.
.	.	4G
.	2F	4F
4C	.	4E
=20	=20	=20
2BB-y	2F	4D
.	.	4C
2AA	2F	1F
1GG	2G	.
.	2B-y	2E
=21	=21	=21
2r	2.A	1F
2D	.	.
.	8GL	.
.	8FJ	.
2BB-y	2G	1r
2C	2G	.
=22	=22	=22
2D	1F	2r
2BB-y	.	2d
1E-X	1r	2B-y
.	.	2c
=23	=23	=23
2D	2r	2d
2D	2A	2f
3.C	2A	1e
6BB-y	2G	.
3C	.	.
=24	=24	=24
1D	2F	2d
.	2F	2f
1r	1c	2.e
.	.	8dL
.	.	8eJ
=25	=25	=25
2r	2A	1f
2F	2A	.
3.E	3.G	1r
6D	6F	.
3E	3G	.
=26	=26	=26
2.F	1F	2r
.	.	2c
4G	.	.
1A	2r	2c
.	2F	2c
=27	=27	=27
1D	2F	2d
.	2F	2f
2r	2G	2e
2GG	2B-y	2d
=28	=28	=28
2C	2A	1c
2C	2G	.
2D	1F	2r
2F	.	2c
=29	=29	=29
2E	2r	2c
2D	2F	2d
1C	2.G	2.e
.	4F	4f
=30	=30	=30
1r	2G	2e
.	2B-y	2d
2r	2A	1c
2C	2G	.
=31	=31	=31
2.D	1F	2r
.	.	2A
4C	.	.
2D	1r	2B-y
2F	.	2A
=32	=32	=32
2E	2r	2G
2D	2A	2F
1C	2A	1c
.	2G	.
=33	=33	=33
2r	2F	2A
2F	2F	2A
2F	1c	2.A
2E	.	.
.	.	8AL
.	.	8GJ
=34	=34	=34
2F	2A	1F
2FF	2A	.
1C	3.G	2r
.	6G	2E
.	3G	.
=35	=35	=35
2AA	1F	2C
2BB-y	.	1F
3.GG	1r	.
6GG	.	2E
3GG	.	.
=36	=36	=36
1FF	2r	0F
.	2A	.
2r	2.A	.
2D	.	.
.	4G	.
=37	=37	=37
2D	2F	2A
2C	2c	2A
2BB-y	1d	2G
2BB-y	.	2F
=38	=38	=38
1F	2c	2F
.	2A	1c
2E-X	2G	.
2E-i	2G	[2B-y
=39	=39	=39
3.D	2F	2B-]
6D	2F	2A
3D	.	.
2C	1c	4A
.	.	4G
[2F	.	2A
=40	=40	=40
2F]	2A	2F
2D	2A	1f
2BB-y	3.G	.
2C	6G	2e
.	3G	.
=41	=41	=41
00FFl	00Fl	00fl
==	==	==
*-	*-	*-
!!!system-decoration: [*]
!!!RDF**kern: i = editorial accidental
!!!RDF**kern: l = terminal long
!!!ENC: Benjamin Ory
!!!END: 2023/12/7
!!!EED: Benjamin Ory
!!!EEV: 2023/12/07
!!!YEC: Copyright 2023 Benjamin Ory, All Rights Reserved
!!!ONB: Translated from MusicXML on 2023/12/07
